libs/ui/packages/crypto-icons/src/svg/HUC.svg

<svg width="24" height="24" viewBox="0 0 24 24" fill="none"><path fill="#ffc018" fill-rule="evenodd" d="M8.625 10.875h6.75V7.5h2.25v12h-2.25v-6.375h-6.75V16.5h-2.25v-12h2.25z" clip-rule="evenodd"/></svg>

<svg width="24" height="24" viewBox="0 0 24 24" fill="none">
<path fill-rule="evenodd" clip-rule="evenodd" d="M8.625 10.875H15.375V7.5H17.625V19.5H15.375V13.125H8.625V16.5H6.375V4.5H8.625V10.875Z" fill="#FFC018"/>
</svg>
